img/quality-features-8.svg

<svg width="40" height="37" viewBox="0 0 40 37" fill="none" xmlns="http://www.w3.org/2000/svg">
<path d="M25.684 36.6179L22.368 33.238L19.051 36.6179C18.9338 36.7378 18.7938 36.8332 18.6392 36.8982C18.4847 36.9632 18.3187 36.9966 18.151 36.9966C17.9833 36.9966 17.8173 36.9632 17.6628 36.8982C17.5082 36.8332 17.3682 36.7378 17.251 36.6179C17.011 36.3718 16.8768 36.0417 16.8768 35.698C16.8768 35.3543 17.011 35.0242 17.251 34.7781L20.568 31.3979L17.251 28.019C17.011 27.7729 16.8768 27.4429 16.8768 27.0991C16.8768 26.7554 17.011 26.4251 17.251 26.179C17.3683 26.0592 17.5084 25.9641 17.6629 25.8992C17.8174 25.8342 17.9834 25.8008 18.151 25.8008C18.3186 25.8008 18.4846 25.8342 18.6391 25.8992C18.7936 25.9641 18.9337 26.0592 19.051 26.179L22.368 29.5591L25.684 26.179C25.8013 26.0592 25.9413 25.9641 26.0959 25.8992C26.2504 25.8342 26.4164 25.8008 26.584 25.8008C26.7516 25.8008 26.9176 25.8342 27.0721 25.8992C27.2267 25.9641 27.3667 26.0592 27.484 26.179C27.7237 26.4252 27.8578 26.7555 27.8578 27.0991C27.8578 27.4428 27.7237 27.7728 27.484 28.019L24.168 31.3979L27.484 34.7781C27.7239 35.0242 27.8582 35.3543 27.8582 35.698C27.8582 36.0417 27.7239 36.3718 27.484 36.6179C27.3668 36.7378 27.2268 36.8332 27.0722 36.8982C26.9177 36.9632 26.7517 36.9966 26.584 36.9966C26.4163 36.9966 26.2504 36.9632 26.0958 36.8982C25.9413 36.8332 25.8013 36.7378 25.684 36.6179ZM1.11902 30.78C1.13261 30.0372 1.36526 29.3149 1.78784 28.7039C2.21043 28.0928 2.80412 27.6203 3.49432 27.3455C4.18453 27.0706 4.94049 27.0059 5.66742 27.1592C6.39434 27.3125 7.0598 27.6769 7.58026 28.207C8.10072 28.7372 8.45301 29.4093 8.5929 30.1389C8.73278 30.8685 8.65406 31.6233 8.36658 32.3083C8.07909 32.9934 7.59567 33.5782 6.97699 33.9895C6.3583 34.4008 5.63189 34.6202 4.88898 34.6201C3.88007 34.6103 2.91634 34.2003 2.20959 33.4802C1.50285 32.7602 1.11093 31.7889 1.12 30.78H1.11902ZM4.89099 24.8C4.63073 24.8002 4.37077 24.8182 4.11298 24.854C4.91742 21.9404 6.24209 19.1962 8.02301 16.7539C9.83792 14.2641 12.1509 12.1793 14.8151 10.6316C17.4792 9.0839 20.4361 8.10724 23.498 7.76392L20.769 5.34595C20.513 5.11702 20.3566 4.79719 20.3331 4.45459C20.3095 4.11199 20.4208 3.77375 20.643 3.51196C20.7514 3.38332 20.8845 3.27776 21.0344 3.20142C21.1843 3.12507 21.348 3.07941 21.5157 3.06738C21.6835 3.05536 21.852 3.07716 22.0113 3.13135C22.1705 3.18554 22.3174 3.27119 22.443 3.38306L27.588 7.94312C27.844 8.17222 28.0005 8.4922 28.024 8.83496C28.0475 9.17772 27.9363 9.51613 27.714 9.77808L23.241 15.0229C23.1326 15.1516 22.9995 15.2574 22.8495 15.3337C22.6996 15.4101 22.5359 15.4556 22.368 15.4675C22.2002 15.4795 22.0317 15.4574 21.8724 15.4031C21.7132 15.3487 21.5665 15.2629 21.441 15.1509C21.185 14.9219 21.0286 14.6021 21.0051 14.2595C20.9815 13.9169 21.0928 13.5787 21.315 13.3169L23.858 10.335C21.1454 10.6171 18.5222 11.4652 16.1577 12.8242C13.7932 14.1833 11.7401 16.0232 10.131 18.2251C8.60804 20.3043 7.44923 22.6268 6.70398 25.094C6.11966 24.8994 5.50789 24.8002 4.89203 24.8H4.89099ZM32.459 8.6709C32.4724 7.92806 32.7049 7.20588 33.1274 6.59473C33.5498 5.98358 34.1434 5.51083 34.8336 5.23584C35.5238 4.96085 36.2798 4.8959 37.0068 5.04907C37.7338 5.20225 38.3994 5.56659 38.92 6.09668C39.4405 6.62677 39.7929 7.29891 39.9329 8.02856C40.0728 8.75822 39.9941 9.51291 39.7067 10.198C39.4192 10.8831 38.9358 11.4681 38.3171 11.8794C37.6984 12.2907 36.972 12.5101 36.229 12.51C35.2203 12.5002 34.2567 12.0905 33.55 11.3706C32.8433 10.6508 32.4512 9.67964 32.46 8.6709H32.459ZM8.81097 10.8191L5.49402 7.43896L2.17798 10.8191C2.06066 10.9388 1.92065 11.0339 1.76611 11.0989C1.61157 11.1638 1.44564 11.1973 1.27802 11.1973C1.11039 11.1973 0.944396 11.1638 0.789856 11.0989C0.635316 11.0339 0.495307 10.9388 0.377991 10.8191C0.138057 10.573 0.00378418 10.2427 0.00378418 9.89893C0.00378418 9.55519 0.138057 9.22514 0.377991 8.979L3.69501 5.59912L0.377991 2.21997C0.138057 1.97383 0.00378418 1.64378 0.00378418 1.30005C0.00378418 0.956317 0.138057 0.626019 0.377991 0.379883C0.495167 0.259901 0.635175 0.164703 0.789734 0.0996094C0.944293 0.0345153 1.11031 0.000976562 1.27802 0.000976562C1.44572 0.000976562 1.61174 0.0345153 1.7663 0.0996094C1.92086 0.164703 2.0608 0.259901 2.17798 0.379883L5.49402 3.76001L8.81097 0.379883C8.92815 0.259901 9.06816 0.164703 9.22272 0.0996094C9.37728 0.0345153 9.54329 0.000976562 9.711 0.000976562C9.87871 0.000976562 10.0447 0.0345153 10.1993 0.0996094C10.3538 0.164703 10.4938 0.259901 10.611 0.379883C10.8505 0.626264 10.9844 0.95647 10.9844 1.30005C10.9844 1.64363 10.8505 1.97359 10.611 2.21997L7.29401 5.6001L10.61 8.979C10.8499 9.22514 10.9842 9.55519 10.9842 9.89893C10.9842 10.2427 10.8499 10.573 10.61 10.8191C10.4927 10.939 10.3527 11.0341 10.1982 11.0991C10.0436 11.1641 9.87769 11.1975 9.71002 11.1975C9.54235 11.1975 9.37635 11.1641 9.2218 11.0991C9.06725 11.0341 8.92724 10.939 8.81 10.8191H8.81097Z" fill="#5856D6"/>
</svg>

<svg width="40" height="37" fill="none" xmlns="http://www.w3.org/2000/svg"><path d="m25.684 36.618-3.316-3.38-3.317 3.38a1.258 1.258 0 0 1-1.8 0 1.317 1.317 0 0 1 0-1.84l3.317-3.38-3.317-3.379a1.317 1.317 0 0 1 0-1.84 1.259 1.259 0 0 1 1.8 0l3.317 3.38 3.316-3.38a1.258 1.258 0 0 1 1.8 0 1.32 1.32 0 0 1 0 1.84l-3.316 3.379 3.316 3.38a1.318 1.318 0 0 1 0 1.84 1.258 1.258 0 0 1-1.8 0ZM1.119 30.78a3.771 3.771 0 1 1 3.77 3.84 3.806 3.806 0 0 1-3.769-3.84h-.001Zm3.772-5.98c-.26 0-.52.018-.778.054a25.074 25.074 0 0 1 3.91-8.1 22.212 22.212 0 0 1 15.475-8.99l-2.729-2.418a1.317 1.317 0 0 1 .265-2.145 1.26 1.26 0 0 1 1.409.182l5.145 4.56a1.318 1.318 0 0 1 .126 1.835l-4.473 5.245a1.257 1.257 0 0 1-1.8.128 1.317 1.317 0 0 1-.126-1.834l2.543-2.982a19.5 19.5 0 0 0-13.727 7.89 22.763 22.763 0 0 0-3.427 6.869 5.74 5.74 0 0 0-1.812-.294h-.001ZM32.459 8.67a3.77 3.77 0 1 1 3.77 3.84 3.806 3.806 0 0 1-3.769-3.84h-.001ZM8.811 10.82 5.494 7.438l-3.316 3.38a1.261 1.261 0 0 1-1.8 0 1.318 1.318 0 0 1 0-1.84l3.317-3.38L.378 2.22a1.318 1.318 0 0 1 0-1.84 1.258 1.258 0 0 1 1.8 0l3.316 3.38L8.811.38a1.258 1.258 0 0 1 1.8 0 1.32 1.32 0 0 1 0 1.84L7.294 5.6l3.316 3.38a1.318 1.318 0 0 1 0 1.84 1.259 1.259 0 0 1-1.8 0h.001Z" fill="#5856D6"/></svg>
